X: 5479
T: Bundle And Go
R: jig
M: 6/8
K: Eminor
|:D|GBB BAG|FAA AGF|GBB BAG|AGF E2F|
GBB BAG|FAA AGF|GAB ABc|AGF G2:|
|:F|Eee efg|fdB AGF|Eee efg|fdB d2F|
Eee efg|fdB AGF|GAB ABc|AGF G2:|

